X: 20685
T: John's Tune
R: reel
M: 4/4
K: Dmajor
f3 e d2 c2|d2 A2 F2 D2|f3 e d2 c2|d2 f2 g4|
a3 g f2 d2|g2 e2 c2 A2|B2 d2 g2 f|d e2 e2 d4:|
f2 d2 A2 F2|G2 B d c2 e2|f2 d2 A2 F2|G2 B d b3 a|
f2 d2 A2 F2|G2 B d e2 f2|g2 f2 e2 c2|d2 fe d4:|

